X: 626
T: Miss Johnson   #3
R: reel
%S: s:2 b:12(6+6)
B: Francis O'Neill: "The Dance Music of Ireland" (1907) #626
Z: Frank Nordberg - http://www.musicaviva.com
F: http://www.musicaviva.com/abc/tunes/ireland/oneill-1001/0626/oneill-1001-0626-1.abc
M: C|
L: 1/8
K: G
"^A"[|] (dc) !segno! \
|: Bcde dcBc | dBgB bBgB |\
[1 Bcde dcBc | Aaag fedc :|\
[2 bagf gfed | egfa gedc |]
"^B"|:\
BcBA G2(BG) | DGBG DG \
[1 B2 | BcBA G2(BG) | FGAB cedc :|\
[2 Bc | dBcA BGAF | DEFG ABc!segno!A |]
